icons/hexagon-warning.svg

<svg xmlns="http://www.w3.org/2000/svg" width="24" height="24" viewBox="0 0 24 24">
  <path d="M16.3173342,1 C17.0224657,1 17.6754933,1.37131518 18.0360686,1.97728201 L23.3914405,10.977282 C23.7664613,11.6075253 23.7664613,12.3924747 23.3914405,13.022718 L18.0360686,22.022718 C17.6754933,22.6286848 17.0224657,23 16.3173342,23 L7.68266576,23 C6.97753431,23 6.32450667,22.6286848 5.96393136,22.022718 L0.608559463,13.022718 C0.233538656,12.3924747 0.233538656,11.6075253 0.608559463,10.977282 L5.96393136,1.97728201 C6.32450667,1.37131518 6.97753431,1 7.68266576,1 L16.3173342,1 Z M12,16 C11.1715729,16 10.5,16.6715729 10.5,17.5 C10.5,18.3284271 11.1715729,19 12,19 C12.8284271,19 13.5,18.3284271 13.5,17.5 C13.5,16.6715729 12.8284271,16 12,16 Z M12,5 C11.4477153,5 11,5.44771525 11,6 L11,6 L11,13 C11,13.5522847 11.4477153,14 12,14 C12.5522847,14 13,13.5522847 13,13 L13,13 L13,6 C13,5.44771525 12.5522847,5 12,5 Z"/>
</svg>

<svg xmlns="http://www.w3.org/2000/svg" viewBox="0 0 24 24">
  <path d="M16.32 1a2 2 0 0 1 1.72.98l5.35 9a2 2 0 0 1 0 2.04l-5.35 9a2 2 0 0 1-1.72.98H7.68a2 2 0 0 1-1.72-.98l-5.35-9a2 2 0 0 1 0-2.04l5.35-9A2 2 0 0 1 7.68 1h8.64zM12 16a1.5 1.5 0 1 0 0 3 1.5 1.5 0 0 0 0-3zm0-11a1 1 0 0 0-1 1v7a1 1 0 0 0 2 0V6a1 1 0 0 0-1-1z"/>
</svg>
